images/Cloud.svg

<svg height="23" viewBox="0 0 33 23" width="33" xmlns="http://www.w3.org/2000/svg" xmlns:xlink="http://www.w3.org/1999/xlink"><linearGradient id="a"><stop offset="0" stop-color="#fff"/><stop offset="1" stop-color="#fff" stop-opacity="0"/></linearGradient><linearGradient id="b" x1="100%" x2="12.670482%" xlink:href="#a" y1="48.611111%" y2="55.677457%"/><linearGradient id="c" x1="100%" x2="0%" xlink:href="#a" y1="46.875%" y2="59.413543%"/><linearGradient id="d" x1="87.374926%" x2="-5.058242%" xlink:href="#a" y1="33.385079%" y2="72.376641%"/><g fill="none" transform="translate(.500254)"><path d="m9.999746 11h12v2h-12z" fill="url(#b)"/><path d="m9.999746 15h8v2h-8z" fill="url(#c)"/><path d="m15.9997458 2c3.8370893.0053602 7.1332865 2.72680058 7.8649 6.4935l.2591 1.346 1.3488.244c2.8014513.5050539 4.7550677 3.0636283 4.5043578 5.8991799-.2507099 2.8355517-2.6229499 5.0116485-5.4695578 5.0173201h-17.01219997c-2.84742136-.0034674-5.22174027-2.1789248-5.47363001-5.015185-.25188973-2.8362602 1.7018852-5.3960978 4.50413001-5.901315l1.3488-.244.2591-1.346c.73253438-3.76668732 4.02894737-6.48785605 7.86619997-6.4935m0-2c-4.7961816.0052493-8.91668766 3.40707704-9.82999997 8.1155-3.82004634.68949394-6.48319511 4.1792736-6.14001069 8.0458457.34318442 3.8665722 3.57934291 6.8327484 7.46111069 6.8386543h17.01649997c3.8818057-.0058033 7.1180609-2.9719498 7.4613002-6.8385549.3432393-3.8666052-2.3199169-7.35644361-6.1400002-8.0459451-.9135332-4.71265795-5.0402158-8.11591514-9.8406-8.1155z" fill="url(#d)"/></g></svg>

<?xml version="1.0" encoding="UTF-8"?>
<svg width="33px" height="23px" viewBox="0 0 33 23" version="1.1" xmlns="http://www.w3.org/2000/svg" xmlns:xlink="http://www.w3.org/1999/xlink">
    <title>Cloud</title>
    <defs>
        <linearGradient x1="100%" y1="48.6111111%" x2="12.6704824%" y2="55.6774565%" id="linearGradient-1">
            <stop stop-color="#FFFFFF" offset="0%"></stop>
            <stop stop-color="#FFFFFF" stop-opacity="0" offset="100%"></stop>
        </linearGradient>
        <linearGradient x1="100%" y1="46.875%" x2="0%" y2="59.4135427%" id="linearGradient-2">
            <stop stop-color="#FFFFFF" offset="0%"></stop>
            <stop stop-color="#FFFFFF" stop-opacity="0" offset="100%"></stop>
        </linearGradient>
        <linearGradient x1="87.3749261%" y1="33.3850788%" x2="-5.05824179%" y2="72.3766412%" id="linearGradient-3">
            <stop stop-color="#FFFFFF" offset="0%"></stop>
            <stop stop-color="#FFFFFF" stop-opacity="0" offset="100%"></stop>
        </linearGradient>
    </defs>
    <g id="Page-1" stroke="none" stroke-width="1" fill="none" fill-rule="evenodd">
        <g id="Artboard" transform="translate(-113.000000, -115.000000)" fill-rule="nonzero">
            <g id="Cloud" transform="translate(113.500254, 115.000000)">
                <rect id="Rectangle" fill="url(#linearGradient-1)" x="9.99974583" y="11" width="12" height="2"></rect>
                <rect id="Rectangle" fill="url(#linearGradient-2)" x="9.99974583" y="15" width="8" height="2"></rect>
                <path d="M15.9997458,2 L15.9997458,2 C19.8368351,2.0053602 23.1330323,4.72680058 23.8646458,8.4935 L24.1237458,9.8395 L25.4725458,10.0835 C28.2739971,10.5885539 30.2276135,13.1471283 29.9769036,15.9826799 C29.7261937,18.8182316 27.3539537,20.9943284 24.5073458,21 L7.49514583,21 C4.64772447,20.9965326 2.27340556,18.8210752 2.02151582,15.984815 C1.76962609,13.1485548 3.72340102,10.5887172 6.52564583,10.0835 L7.87444583,9.8395 L8.13354583,8.4935 C8.86608021,4.72681268 12.1624932,2.00564395 15.9997458,2 M15.9997458,0 C11.2035642,0.0052493014 7.08305814,3.40707704 6.16974583,8.1155 C2.34969949,8.80499394 -0.313449282,12.2947736 0.0297351383,16.1613457 C0.372919559,20.0279179 3.60907805,22.9940941 7.49084583,23 L24.5073458,23 C28.3891515,22.9941967 31.6254067,20.0280502 31.968646,16.1614451 C32.3118853,12.2948399 29.6487291,8.80500149 25.8286458,8.1155 C24.9151126,3.40284205 20.78843,-0.000415138197 15.9880458,0 L15.9997458,0 Z" id="Shape" fill="url(#linearGradient-3)"></path>
            </g>
        </g>
    </g>
</svg>
